Newaita-dark/apps/64/input-tablet.svg

<svg height="64" viewBox="0 0 64 64" width="64" xmlns="http://www.w3.org/2000/svg" xmlns:xlink="http://www.w3.org/1999/xlink"><linearGradient id="a" gradientTransform="matrix(.200019 0 0 .125012 -19.051837 24.231482)" gradientUnits="userSpaceOnUse" x1="254" x2="254" y1="233.5" y2="254.666672"><stop offset="0" stop-opacity=".27451"/><stop offset="1" stop-opacity="0"/></linearGradient><linearGradient id="b"><stop offset="0" stop-opacity=".313726"/><stop offset=".222222" stop-opacity=".27451"/><stop offset="1" stop-opacity="0"/></linearGradient><radialGradient id="c" cx="450.908936" cy="189.579361" gradientTransform="matrix(.00000035 -.156265 -.281277 -.0000002 105.584339 124.544577)" gradientUnits="userSpaceOnUse" r="21.166656" xlink:href="#b"/><radialGradient id="d" cx="450.908936" cy="189.579361" gradientTransform="matrix(-.00000035 .156265 .281277 .0000002 -42.078282 -17.701046)" gradientUnits="userSpaceOnUse" r="21.166656" xlink:href="#b"/><radialGradient id="e" cx="450.908936" cy="189.579361" gradientTransform="matrix(-.00000035 -.156265 .281277 -.0000002 -42.078282 124.544577)" gradientUnits="userSpaceOnUse" r="21.166656" xlink:href="#b"/><radialGradient id="f" cx="450.908936" cy="189.579361" gradientTransform="matrix(.00000035 .156265 -.281277 .0000002 105.584335 -17.701047)" gradientUnits="userSpaceOnUse" r="21.166656" xlink:href="#b"/><linearGradient id="g" gradientUnits="userSpaceOnUse" x1="31.753048" x2="31.753048" y1="53.42177999994" y2="8.438296"><stop offset="0" stop-color="#616161"/><stop offset="1" stop-color="#757575"/></linearGradient><linearGradient id="h" gradientTransform="matrix(.944444 0 0 1.071429 3.527778 -13.654765)" gradientUnits="userSpaceOnUse" x1="254" x2="254" y1="191.166672" y2="-105.166656"><stop offset="0" stop-color="#424242"/><stop offset="1" stop-color="#616161"/></linearGradient><path d="m10.585938 53.421875h42.335937v2.644531h-42.335937zm0 0" fill="url(#a)"/><path d="m52.921875 53.421875h5.292969v-2.644531h-5.292969zm0 0" fill="url(#c)"/><path d="m10.585938 53.421875h-5.292969v2.644531h5.292969zm0 0" fill="url(#d)"/><path d="m10.585938 53.421875h-5.292969v-2.644531h5.292969zm0 0" fill="url(#e)"/><path d="m52.921875 53.421875h5.292969v2.644531h-5.292969zm0 0" fill="url(#f)"/><path d="m7.9375 8.4375h47.628906c1.460938 0 2.648438 1.183594 2.648438 2.648438v39.691406c0 1.460937-1.1875 2.644531-2.648438 2.644531h-47.628906c-1.460938 0-2.644531-1.183594-2.644531-2.644531v-39.691406c0-1.464844 1.183593-2.648438 2.644531-2.648438zm0 0" fill="url(#g)"/><path d="m83.492027-126.320968h319.844456c11.061444 0 19.998091 10.15528 19.998091 22.654086v272.16151c0 12.530054-8.936647 22.685334-19.998091 22.685334h-319.844456c-11.030197 0-19.99809-10.15528-19.99809-22.685334v-272.16151c0-12.498806 8.967893-22.654086 19.99809-22.654086zm0 0" fill="url(#h)" stroke="#212121" stroke-linecap="round" stroke-linejoin="round" stroke-width="3.017804" transform="matrix(.125012 0 0 .125012 0 26.877566)"/><path d="m444.488803 21.821135c5.843192 0 10.592739 4.312088 10.592739 9.624081v1.937315c0 5.311992-4.749547 9.624081-10.592739 9.624081s-10.561491-4.312089-10.561491-9.624081v-1.937315c0-5.311993 4.718299-9.624081 10.561491-9.624081zm0 0" fill="none" stroke="#212121" stroke-linecap="round" stroke-linejoin="round" stroke-width="3" transform="matrix(.125012 0 0 .125012 0 26.877566)"/><path d="m7.9375 8.4375c-1.464844 0-2.644531 1.179688-2.644531 2.648438v.660156c0-1.464844 1.179687-2.644532 2.644531-2.644532h47.628906c1.46875 0 2.648438 1.179688 2.648438 2.644532v-.660156c0-1.46875-1.179688-2.648438-2.648438-2.648438zm0 0" fill="#fff" fill-opacity=".392157"/><path d="m7.9375 53.421875c-1.464844 0-2.644531-1.179687-2.644531-2.644531v-.664063c0 1.46875 1.179687 2.648438 2.644531 2.648438h47.628906c1.46875 0 2.648438-1.179688 2.648438-2.648438v.664063c0 1.464844-1.179688 2.644531-2.648438 2.644531zm0 0" fill-opacity=".235294"/><path d="m7.9375 8.25c-1.566406 0-2.832031 1.269531-2.832031 2.835938v39.691406c0 1.566406 1.265625 2.832031 2.832031 2.832031h47.628906c1.566406 0 2.835938-1.265625 2.835938-2.832031v-39.691406c0-1.566407-1.269532-2.835938-2.835938-2.835938zm0 .375h47.628906c1.367188 0 2.460938 1.09375 2.460938 2.460938v39.691406c0 1.363281-1.09375 2.457031-2.460938 2.457031h-47.628906c-1.363281 0-2.457031-1.09375-2.457031-2.457031v-39.691406c0-1.367188 1.09375-2.460938 2.457031-2.460938zm0 0" fill="#212121"/><g fill="none" stroke="#212121" stroke-linecap="round" stroke-linejoin="round" stroke-width="3" transform="matrix(.125012 0 0 .125012 0 26.877566)"><path d="m444.488803-31.080063c5.843192 0 10.592739 4.312088 10.592739 9.62408v1.906068c0 5.311993-4.749547 9.624081-10.592739 9.624081s-10.561491-4.312088-10.561491-9.624081v-1.906068c0-5.311992 4.718299-9.62408 10.561491-9.62408zm0 0"/><path d="m444.488803 74.75358c5.843192 0 10.592739 4.312088 10.592739 9.624081v1.906068c0 5.311993-4.749547 9.624081-10.592739 9.624081s-10.561491-4.312088-10.561491-9.624081v-1.906068c0-5.311993 4.718299-9.624081 10.561491-9.624081zm0 0"/></g></svg>

<?xml version="1.0" encoding="UTF-8"?>
<svg xmlns="http://www.w3.org/2000/svg" xmlns:xlink="http://www.w3.org/1999/xlink" width="64px" height="64px" viewBox="0 0 64 64" version="1.1">
<defs>
<linearGradient id="linear0" gradientUnits="userSpaceOnUse" x1="254" y1="233.5" x2="254" y2="254.666672" gradientTransform="matrix(0.200019,0,0,0.125012,-19.051837,24.231482)">
<stop offset="0" style="stop-color:rgb(0%,0%,0%);stop-opacity:0.27451;"/>
<stop offset="1" style="stop-color:rgb(0%,0%,0%);stop-opacity:0;"/>
</linearGradient>
<radialGradient id="radial0" gradientUnits="userSpaceOnUse" cx="450.908936" cy="189.579361" fx="450.908936" fy="189.579361" r="21.166656" gradientTransform="matrix(0.000000348341,-0.156265,-0.281277,-0.000000203077,105.584339,124.544577)">
<stop offset="0" style="stop-color:rgb(0%,0%,0%);stop-opacity:0.313726;"/>
<stop offset="0.222222" style="stop-color:rgb(0%,0%,0%);stop-opacity:0.27451;"/>
<stop offset="1" style="stop-color:rgb(0%,0%,0%);stop-opacity:0;"/>
</radialGradient>
<radialGradient id="radial1" gradientUnits="userSpaceOnUse" cx="450.908936" cy="189.579361" fx="450.908936" fy="189.579361" r="21.166656" gradientTransform="matrix(-0.000000348341,0.156265,0.281277,0.000000203077,-42.078282,-17.701046)">
<stop offset="0" style="stop-color:rgb(0%,0%,0%);stop-opacity:0.313726;"/>
<stop offset="0.222222" style="stop-color:rgb(0%,0%,0%);stop-opacity:0.27451;"/>
<stop offset="1" style="stop-color:rgb(0%,0%,0%);stop-opacity:0;"/>
</radialGradient>
<radialGradient id="radial2" gradientUnits="userSpaceOnUse" cx="450.908936" cy="189.579361" fx="450.908936" fy="189.579361" r="21.166656" gradientTransform="matrix(-0.000000348341,-0.156265,0.281277,-0.000000203077,-42.078282,124.544577)">
<stop offset="0" style="stop-color:rgb(0%,0%,0%);stop-opacity:0.313726;"/>
<stop offset="0.222222" style="stop-color:rgb(0%,0%,0%);stop-opacity:0.27451;"/>
<stop offset="1" style="stop-color:rgb(0%,0%,0%);stop-opacity:0;"/>
</radialGradient>
<radialGradient id="radial3" gradientUnits="userSpaceOnUse" cx="450.908936" cy="189.579361" fx="450.908936" fy="189.579361" r="21.166656" gradientTransform="matrix(0.000000348341,0.156265,-0.281277,0.000000203077,105.584335,-17.701047)">
<stop offset="0" style="stop-color:rgb(0%,0%,0%);stop-opacity:0.313726;"/>
<stop offset="0.222222" style="stop-color:rgb(0%,0%,0%);stop-opacity:0.27451;"/>
<stop offset="1" style="stop-color:rgb(0%,0%,0%);stop-opacity:0;"/>
</radialGradient>
<linearGradient id="linear1" gradientUnits="userSpaceOnUse" x1="254" y1="212.333328" x2="254" y2="-147.5" gradientTransform="matrix(0.125012,0,0,0.125012,0,26.877566)">
<stop offset="0" style="stop-color:rgb(38.039216%,38.039216%,38.039216%);stop-opacity:1;"/>
<stop offset="1" style="stop-color:rgb(45.882353%,45.882353%,45.882353%);stop-opacity:1;"/>
</linearGradient>
<linearGradient id="linear2" gradientUnits="userSpaceOnUse" x1="254" y1="191.166672" x2="254" y2="-105.166656" gradientTransform="matrix(0.944444,0,0,1.071429,3.527778,-13.654765)">
<stop offset="0" style="stop-color:rgb(25.882354%,25.882354%,25.882354%);stop-opacity:1;"/>
<stop offset="1" style="stop-color:rgb(38.039216%,38.039216%,38.039216%);stop-opacity:1;"/>
</linearGradient>
</defs>
<g id="surface1">
<path style=" stroke:none;fill-rule:nonzero;fill:url(#linear0);" d="M 10.585938 53.421875 L 52.921875 53.421875 L 52.921875 56.066406 L 10.585938 56.066406 Z M 10.585938 53.421875 "/>
<path style=" stroke:none;fill-rule:nonzero;fill:url(#radial0);" d="M 52.921875 53.421875 L 58.214844 53.421875 L 58.214844 50.777344 L 52.921875 50.777344 Z M 52.921875 53.421875 "/>
<path style=" stroke:none;fill-rule:nonzero;fill:url(#radial1);" d="M 10.585938 53.421875 L 5.292969 53.421875 L 5.292969 56.066406 L 10.585938 56.066406 Z M 10.585938 53.421875 "/>
<path style=" stroke:none;fill-rule:nonzero;fill:url(#radial2);" d="M 10.585938 53.421875 L 5.292969 53.421875 L 5.292969 50.777344 L 10.585938 50.777344 Z M 10.585938 53.421875 "/>
<path style=" stroke:none;fill-rule:nonzero;fill:url(#radial3);" d="M 52.921875 53.421875 L 58.214844 53.421875 L 58.214844 56.066406 L 52.921875 56.066406 Z M 52.921875 53.421875 "/>
<path style=" stroke:none;fill-rule:nonzero;fill:url(#linear1);" d="M 7.9375 8.4375 L 55.566406 8.4375 C 57.027344 8.4375 58.214844 9.621094 58.214844 11.085938 L 58.214844 50.777344 C 58.214844 52.238281 57.027344 53.421875 55.566406 53.421875 L 7.9375 53.421875 C 6.476562 53.421875 5.292969 52.238281 5.292969 50.777344 L 5.292969 11.085938 C 5.292969 9.621094 6.476562 8.4375 7.9375 8.4375 Z M 7.9375 8.4375 "/>
<path style="fill-rule:nonzero;fill:url(#linear2);stroke-width:3.017804;stroke-linecap:round;stroke-linejoin:round;stroke:rgb(12.941177%,12.941177%,12.941177%);stroke-opacity:1;stroke-miterlimit:4;" d="M 83.492027 -126.320968 L 403.336483 -126.320968 C 414.397927 -126.320968 423.334574 -116.165688 423.334574 -103.666882 L 423.334574 168.494628 C 423.334574 181.024682 414.397927 191.179962 403.336483 191.179962 L 83.492027 191.179962 C 72.46183 191.179962 63.493937 181.024682 63.493937 168.494628 L 63.493937 -103.666882 C 63.493937 -116.165688 72.46183 -126.320968 83.492027 -126.320968 Z M 83.492027 -126.320968 " transform="matrix(0.125012,0,0,0.125012,0,26.877566)"/>
<path style="fill:none;stroke-width:3;stroke-linecap:round;stroke-linejoin:round;stroke:rgb(12.941177%,12.941177%,12.941177%);stroke-opacity:1;stroke-miterlimit:4;" d="M 444.488803 21.821135 C 450.331995 21.821135 455.081542 26.133223 455.081542 31.445216 L 455.081542 33.382531 C 455.081542 38.694523 450.331995 43.006612 444.488803 43.006612 C 438.645611 43.006612 433.927312 38.694523 433.927312 33.382531 L 433.927312 31.445216 C 433.927312 26.133223 438.645611 21.821135 444.488803 21.821135 Z M 444.488803 21.821135 " transform="matrix(0.125012,0,0,0.125012,0,26.877566)"/>
<path style=" stroke:none;fill-rule:nonzero;fill:rgb(100%,100%,100%);fill-opacity:0.392157;" d="M 7.9375 8.4375 C 6.472656 8.4375 5.292969 9.617188 5.292969 11.085938 L 5.292969 11.746094 C 5.292969 10.28125 6.472656 9.101562 7.9375 9.101562 L 55.566406 9.101562 C 57.035156 9.101562 58.214844 10.28125 58.214844 11.746094 L 58.214844 11.085938 C 58.214844 9.617188 57.035156 8.4375 55.566406 8.4375 Z M 7.9375 8.4375 "/>
<path style=" stroke:none;fill-rule:nonzero;fill:rgb(0%,0%,0%);fill-opacity:0.235294;" d="M 7.9375 53.421875 C 6.472656 53.421875 5.292969 52.242188 5.292969 50.777344 L 5.292969 50.113281 C 5.292969 51.582031 6.472656 52.761719 7.9375 52.761719 L 55.566406 52.761719 C 57.035156 52.761719 58.214844 51.582031 58.214844 50.113281 L 58.214844 50.777344 C 58.214844 52.242188 57.035156 53.421875 55.566406 53.421875 Z M 7.9375 53.421875 "/>
<path style=" stroke:none;fill-rule:nonzero;fill:rgb(12.941177%,12.941177%,12.941177%);fill-opacity:1;" d="M 7.9375 8.25 C 6.371094 8.25 5.105469 9.519531 5.105469 11.085938 L 5.105469 50.777344 C 5.105469 52.34375 6.371094 53.609375 7.9375 53.609375 L 55.566406 53.609375 C 57.132812 53.609375 58.402344 52.34375 58.402344 50.777344 L 58.402344 11.085938 C 58.402344 9.519531 57.132812 8.25 55.566406 8.25 Z M 7.9375 8.625 L 55.566406 8.625 C 56.933594 8.625 58.027344 9.71875 58.027344 11.085938 L 58.027344 50.777344 C 58.027344 52.140625 56.933594 53.234375 55.566406 53.234375 L 7.9375 53.234375 C 6.574219 53.234375 5.480469 52.140625 5.480469 50.777344 L 5.480469 11.085938 C 5.480469 9.71875 6.574219 8.625 7.9375 8.625 Z M 7.9375 8.625 "/>
<path style="fill:none;stroke-width:3;stroke-linecap:round;stroke-linejoin:round;stroke:rgb(12.941177%,12.941177%,12.941177%);stroke-opacity:1;stroke-miterlimit:4;" d="M 444.488803 -31.080063 C 450.331995 -31.080063 455.081542 -26.767975 455.081542 -21.455983 L 455.081542 -19.549915 C 455.081542 -14.237922 450.331995 -9.925834 444.488803 -9.925834 C 438.645611 -9.925834 433.927312 -14.237922 433.927312 -19.549915 L 433.927312 -21.455983 C 433.927312 -26.767975 438.645611 -31.080063 444.488803 -31.080063 Z M 444.488803 -31.080063 " transform="matrix(0.125012,0,0,0.125012,0,26.877566)"/>
<path style="fill:none;stroke-width:3;stroke-linecap:round;stroke-linejoin:round;stroke:rgb(12.941177%,12.941177%,12.941177%);stroke-opacity:1;stroke-miterlimit:4;" d="M 444.488803 74.75358 C 450.331995 74.75358 455.081542 79.065668 455.081542 84.377661 L 455.081542 86.283729 C 455.081542 91.595722 450.331995 95.90781 444.488803 95.90781 C 438.645611 95.90781 433.927312 91.595722 433.927312 86.283729 L 433.927312 84.377661 C 433.927312 79.065668 438.645611 74.75358 444.488803 74.75358 Z M 444.488803 74.75358 " transform="matrix(0.125012,0,0,0.125012,0,26.877566)"/>
</g>
</svg>
